X: 10
T: No_108_Serenade.krn
N: Derived from No_108_Serenade.krn
%%abc-version 2.0
%%abcx-abcm2ps-target-version 5.9.1 (29 Sep 2008)
%%abc-creator hum2abc beta
%%abcx-conversion-date 2019/03/15 08:36:49
%%humdrum-veritas 934475006
%%humdrum-veritas-data 1424519629
%%linebreak <none>
%%barnumbers 0
L: 1/16
M: 2/4
%%staves {1 2}
V: 1 clef=bass
V: 2 clef=bass
K: Ab
[V:1] [K:clef=bass][M:2/4]E2FE FEF2 | 
[V:2] [K:clef=bass][M:2/4](3!accent!G,,2G,,2 z2 (3!accent!G,,2G,,2 z2 | 
[V:1] E3C B,2 C/B,/A,/F,/ | 
[V:2] (3!accent!G,,2G,,2 z2 (3!accent!G,,2G,,2 z2 | 
[V:1] E,E,3 E,E,3 | 
[V:2] z8 | 
[V:1] B,2(3:2:2A,F,2 A,A,F,2 ||  
[V:2] z8 ||  
[V:1] [M:3/4]E,E,3E,6E,2 | 
[V:2] [M:3/4]z12 | 
[V:1] E,4E,8 ||  
[V:2] z12 ||  
[V:1] [M:2/4]A,4A,2C3/B,/ | 
[V:2] [M:2/4]z8 | 
[V:1] A,4A,2B,F, | 
[V:2] z8 | 
[V:1] E,4E,/E,3/A,F, ||  
[V:2] z8 ||  
[V:1] [M:3/4]E,4E,E,3E,4 ||  
[V:2] [M:3/4]z12 ||  
[V:1] [M:2/4]C3/B,/A,2 A,/A,3/B,F, | 
[V:2] [M:2/4]z8 | 
[V:1] E,E,3 E,2A,F, | 
[V:2] z8 | 
[V:1] E,E,3 E,2E,2 ||  
[V:2] z8 ||  
[V:1] [M:3/4]E,4E,8 |]  
[V:2] [M:3/4]z12 |]  



